assets/icons/24px/stroke/chevron-down-24px.svg

<svg width="24" height="24" viewBox="0 0 24 24" fill="none" xmlns="http://www.w3.org/2000/svg">
<g clip-path="url(#clip0_878_23587)">
<g clip-path="url(#clip1_878_23587)">
<path fill-rule="evenodd" clip-rule="evenodd" d="M12.6183 14.8766C12.9893 14.5935 13.4347 14.1512 14.1213 13.4645L19.2929 8.29295C19.6834 7.90243 20.3166 7.90243 20.7071 8.29295C21.0976 8.68348 21.0976 9.31664 20.7071 9.70716L15.5355 14.8787C15.52 14.8943 15.5044 14.9098 15.489 14.9253C14.8622 15.5522 14.3221 16.0923 13.8315 16.4667C13.3056 16.8679 12.7208 17.1716 12 17.1716C11.2792 17.1716 10.6944 16.8679 10.1685 16.4667C9.67789 16.0923 9.13781 15.5522 8.51101 14.9253L3.29289 9.70717C2.90237 9.31664 2.90237 8.68348 3.29289 8.29295C3.68342 7.90243 4.31658 7.90243 4.7071 8.29295L9.87868 13.4645C10.5653 14.1512 11.0107 14.5935 11.3817 14.8766C11.7296 15.1421 11.8923 15.1716 12 15.1716C12.1077 15.1716 12.2704 15.1421 12.6183 14.8766Z" fill="white"/>
<path fill-rule="evenodd" clip-rule="evenodd" d="M12.6183 14.8766C12.9893 14.5935 13.4347 14.1512 14.1213 13.4645L19.2929 8.29295C19.6834 7.90243 20.3166 7.90243 20.7071 8.29295C21.0976 8.68348 21.0976 9.31664 20.7071 9.70716L15.5355 14.8787C15.52 14.8943 15.5044 14.9098 15.489 14.9253C14.8622 15.5522 14.3221 16.0923 13.8315 16.4667C13.3056 16.8679 12.7208 17.1716 12 17.1716C11.2792 17.1716 10.6944 16.8679 10.1685 16.4667C9.67789 16.0923 9.13781 15.5522 8.51101 14.9253L3.29289 9.70717C2.90237 9.31664 2.90237 8.68348 3.29289 8.29295C3.68342 7.90243 4.31658 7.90243 4.7071 8.29295L9.87868 13.4645C10.5653 14.1512 11.0107 14.5935 11.3817 14.8766C11.7296 15.1421 11.8923 15.1716 12 15.1716C12.1077 15.1716 12.2704 15.1421 12.6183 14.8766Z" fill="white"/>
</g>
</g>
<defs>
<clipPath id="clip0_878_23587">
<rect width="24" height="24" fill="white"/>
</clipPath>
<clipPath id="clip1_878_23587">
<rect width="24" height="24" fill="white" transform="translate(24 24) rotate(180)"/>
</clipPath>
</defs>
</svg>

<svg width="24" height="24" fill="none" xmlns="http://www.w3.org/2000/svg"><g clip-path="url(#clip0_878_23587)"><g clip-path="url(#clip1_878_23587)" fill-rule="evenodd" clip-rule="evenodd" fill="#fff"><path d="M12.618 14.877c.371-.284.817-.726 1.503-1.413l5.172-5.171a1 1 0 1 1 1.414 1.414l-5.171 5.172-.047.046c-.627.627-1.167 1.167-1.658 1.542-.525.4-1.11.705-1.831.705-.72 0-1.306-.304-1.832-.705-.49-.375-1.03-.915-1.657-1.542L3.293 9.707a1 1 0 0 1 1.414-1.414l5.172 5.171c.686.687 1.132 1.13 1.503 1.413.348.265.51.295.618.295.108 0 .27-.03.618-.295z"/><path d="M12.618 14.877c.371-.284.817-.726 1.503-1.413l5.172-5.171a1 1 0 1 1 1.414 1.414l-5.171 5.172-.047.046c-.627.627-1.167 1.167-1.658 1.542-.525.4-1.11.705-1.831.705-.72 0-1.306-.304-1.832-.705-.49-.375-1.03-.915-1.657-1.542L3.293 9.707a1 1 0 0 1 1.414-1.414l5.172 5.171c.686.687 1.132 1.13 1.503 1.413.348.265.51.295.618.295.108 0 .27-.03.618-.295z"/></g></g><defs><clipPath id="clip0_878_23587"><path fill="#fff" d="M0 0H24V24H0z"/></clipPath><clipPath id="clip1_878_23587"><path fill="#fff" transform="rotate(180 12 12)" d="M0 0H24V24H0z"/></clipPath></defs></svg>
